X:1
M:2/4
L:1/16
Q:1/4=70
K:A
E2 | AGAB ABcA | BABc de.fg | agaf ecAc | BcBA AGFE |!
cd | efed ceae | fefd ceae | fgaf ecAc | BcBA AGFE |!

